assets/images/icon-message-dots.svg

<svg width="16" height="17" viewBox="0 0 16 17" fill="none" xmlns="http://www.w3.org/2000/svg">
<path d="M7.99996 7.8338V7.84047M5.33329 7.8338V7.84047M10.6666 7.8338V7.84047M2.66663 14.5005V5.8338C2.66663 5.30337 2.87734 4.79466 3.25241 4.41959C3.62749 4.04452 4.13619 3.8338 4.66663 3.8338H11.3333C11.8637 3.8338 12.3724 4.04452 12.7475 4.41959C13.1226 4.79466 13.3333 5.30337 13.3333 5.8338V9.8338C13.3333 10.3642 13.1226 10.8729 12.7475 11.248C12.3724 11.6231 11.8637 11.8338 11.3333 11.8338H5.33329L2.66663 14.5005Z" stroke="#FA9531" stroke-width="2" stroke-linecap="round" stroke-linejoin="round"/>
</svg>

<svg xmlns="http://www.w3.org/2000/svg" width="16" height="17" fill="none" xmlns:v="https://vecta.io/nano"><path d="M8 7.834v.007m-2.667-.007v.007m5.333-.007v.007m-8 6.66V5.834a2 2 0 0 1 2-2h6.667a2 2 0 0 1 2 2v4a2 2 0 0 1-2 2h-6l-2.667 2.667z" stroke="#fa9531" stroke-width="2" stroke-linecap="round" stroke-linejoin="round"/></svg>
